Gruvbox-Plus-Dark/actions/16/address-book-new.svg

<?xml version="1.0" standalone="no"?><!-- Generator: Gravit.io --><svg xmlns="http://www.w3.org/2000/svg" xmlns:xlink="http://www.w3.org/1999/xlink" style="isolation:isolate" viewBox="0 0 16 16" width="16" height="16"><path d=" M 3 1 C 1.892 1 1 1.892 1 3 L 1 13 C 1 14.108 1.892 15 3 15 L 13 15 C 14.108 15 15 14.108 15 13 L 15 3 C 15 1.892 14.108 1 13 1 L 3 1 Z  M 7.757868 9.34518 L 7.757868 9.34518 L 7.757868 9.34518 Q 8.29594 9.34518 8.645686 8.854189 L 8.645686 8.854189 L 8.645686 8.854189 Q 8.995433 8.363199 8.995433 7.757868 L 8.995433 7.757868 L 8.995433 7.757868 Q 8.995433 7.287055 8.780204 7.011293 L 8.780204 7.011293 L 8.780204 7.011293 Q 8.564976 6.735531 8.174873 6.735531 L 8.174873 6.735531 L 8.174873 6.735531 Q 7.636801 6.735531 7.280329 7.192892 L 7.280329 7.192892 L 7.280329 7.192892 Q 6.923856 7.650253 6.923856 8.29594 L 6.923856 8.29594 L 6.923856 8.29594 Q 6.923856 8.766753 7.152537 9.055966 L 7.152537 9.055966 L 7.152537 9.055966 Q 7.381217 9.34518 7.757868 9.34518 L 7.757868 9.34518 L 7.757868 9.34518 Z  M 8.094163 12.869552 L 8.094163 12.869552 L 8.094163 12.869552 Q 5.901519 12.869552 4.569791 11.62526 L 4.569791 11.62526 L 4.569791 11.62526 Q 3.238063 10.380969 3.238063 8.161422 L 3.238063 8.161422 L 3.238063 8.161422 Q 3.238063 5.98223 4.684131 4.556339 L 4.684131 4.556339 L 4.684131 4.556339 Q 6.1302 3.130448 8.228681 3.130448 L 8.228681 3.130448 L 8.228681 3.130448 Q 10.259902 3.130448 11.51092 4.294029 L 11.51092 4.294029 L 11.51092 4.294029 Q 12.761937 5.45761 12.761937 7.165988 L 12.761937 7.165988 L 12.761937 7.165988 Q 12.761937 8.618783 11.975007 9.587312 L 11.975007 9.587312 L 11.975007 9.587312 Q 11.188077 10.555842 10.058125 10.555842 L 10.058125 10.555842 L 10.058125 10.555842 Q 9.708379 10.555842 9.405713 10.360791 L 9.405713 10.360791 L 9.405713 10.360791 Q 9.103048 10.16574 9.022337 9.802541 L 9.022337 9.802541 L 9.022337 9.802541 Q 8.551524 10.582746 7.569542 10.582746 L 7.569542 10.582746 L 7.569542 10.582746 Q 6.708627 10.582746 6.170555 9.950511 L 6.170555 9.950511 L 6.170555 9.950511 Q 5.632483 9.318276 5.632483 8.282488 L 5.632483 8.282488 L 5.632483 8.282488 Q 5.632483 7.206344 6.331977 6.352155 L 6.331977 6.352155 L 6.331977 6.352155 Q 7.03147 5.497965 8.107614 5.497965 L 8.107614 5.497965 L 8.107614 5.497965 Q 8.96853 5.497965 9.318276 6.157103 L 9.318276 6.157103 L 9.412439 5.672839 L 10.676908 5.672839 L 10.232999 8 L 10.232999 8 Q 10.058125 8.914722 10.058125 9.156855 L 10.058125 9.156855 L 10.058125 9.156855 Q 10.058125 9.439343 10.286806 9.439343 L 10.286806 9.439343 L 10.286806 9.439343 Q 10.771071 9.439343 11.154447 8.793656 L 11.154447 8.793656 L 11.154447 8.793656 Q 11.537823 8.14797 11.537823 7.192892 L 11.537823 7.192892 L 11.537823 7.192892 Q 11.537823 5.955326 10.683634 5.148218 L 10.683634 5.148218 L 10.683634 5.148218 Q 9.829445 4.34111 8.282488 4.34111 L 8.282488 4.34111 L 8.282488 4.34111 Q 6.641368 4.34111 5.598854 5.430706 L 5.598854 5.430706 L 5.598854 5.430706 Q 4.556339 6.520302 4.556339 8.174873 L 4.556339 8.174873 L 4.556339 8.174873 Q 4.556339 9.829445 5.518143 10.744167 L 5.518143 10.744167 L 5.518143 10.744167 Q 6.479947 11.65889 8.14797 11.65889 L 8.14797 11.65889 L 8.14797 11.65889 Q 9.008885 11.65889 9.896704 11.430209 L 9.896704 11.430209 L 9.560409 12.775389 L 9.560409 12.775389 Q 8.901271 12.869552 8.094163 12.869552 L 8.094163 12.869552 L 8.094163 12.869552 Z " fill-rule="evenodd" id="Compound Shape" fill="#ebdbb2"/></svg>

<svg width="16" height="16" version="1.1" xmlns="http://www.w3.org/2000/svg">
  <defs>
    <style type="text/css">.ColorScheme-Text { color:#ebdbb2; } .ColorScheme-Highlight { color:#458588; }</style>
  </defs>
  <path class="ColorScheme-Text" d="m3 1c-1.108 0-2 0.892-2 2v10c0 1.108 0.892 2 2 2h10c1.108 0 2-0.892 2-2v-10c0-1.108-0.892-2-2-2zm5.646 7.854c0.2332-0.3273 0.3497-0.6928 0.3497-1.096 0-0.3139-0.07174-0.5627-0.2152-0.7466-0.1435-0.1838-0.3453-0.2758-0.6053-0.2758-0.3587 0-0.6569 0.1525-0.8945 0.4574s-0.3565 0.6726-0.3565 1.103c0 0.3139 0.07623 0.5672 0.2287 0.76 0.1525 0.1928 0.3542 0.2892 0.6591 0.2891s0.6009-0.1638 0.834-0.4911zm-5.408-0.693c0-1.453 0.482-2.654 1.446-3.605 0.964-0.9506 2.146-1.426 3.545-1.426 1.354 0 2.448 0.3879 3.282 1.164 0.834 0.7757 1.251 1.733 1.251 2.872 0 0.9685-0.2623 1.776-0.7869 2.421-0.5246 0.6457-1.164 0.9685-1.917 0.9685-0.2332 0-0.4506-0.06502-0.6524-0.1951-0.2018-0.13-0.3296-0.3161-0.3834-0.5582-0.3139 0.5201-0.7981 0.7802-1.453 0.7802-0.5739 0-1.04-0.2107-1.399-0.6322s-0.5381-0.9775-0.5381-1.668c0-0.7174 0.2332-1.361 0.6995-1.93 0.4663-0.5695 1.058-0.8542 1.776-0.8542 0.5739 0 0.9775 0.2197 1.211 0.6591l0.09416-0.4843h1.264c-0.148 0.7757-0.2959 1.551-0.4439 2.327-0.1166 0.6098-0.1749 0.9954-0.1749 1.157 0 0.1883 0.07623 0.2825 0.2287 0.2825 0.3228 0 0.6121-0.2152 0.8676-0.6457 0.2556-0.4305 0.3834-0.964 0.3834-1.601 0-0.825-0.2847-1.507-0.8542-2.045s-1.37-0.8071-2.401-0.8071c-1.094 0-1.989 0.3632-2.684 1.09-0.695 0.7264-1.043 1.641-1.043 2.744s0.3206 1.959 0.9618 2.569 1.518 0.9147 2.63 0.9147c0.5947 0.01851 1.172-0.109 1.749-0.2287l-0.3363 1.345c-0.4394 0.06278-0.6501 0.09416-1.65 0.09416-0.9999 2e-6 -2.453-0.4148-3.34-1.244s-1.332-1.984-1.332-3.464z" fill="currentColor"/>
</svg>
